vendor/shopware/storefront/Resources/app/storefront/dist/assets/icon/solid/plus-circle.svg

<svg xmlns="http://www.w3.org/2000/svg" width="16" height="16" viewBox="0 0 16 16">
  <path fill="#758CA3" fill-rule="evenodd" d="M7,7 L7,5 C7,4.44771525 7.44771525,4 8,4 C8.55228475,4 9,4.44771525 9,5 L9,7 L11,7 C11.5522847,7 12,7.44771525 12,8 C12,8.55228475 11.5522847,9 11,9 L9,9 L9,11 C9,11.5522847 8.55228475,12 8,12 C7.44771525,12 7,11.5522847 7,11 L7,9 L5,9 C4.44771525,9 4,8.55228475 4,8 C4,7.44771525 4.44771525,7 5,7 L7,7 Z M8,16 C3.581722,16 0,12.418278 0,8 C0,3.581722 3.581722,0 8,0 C12.418278,0 16,3.581722 16,8 C16,12.418278 12.418278,16 8,16 Z M8,14 C11.3137085,14 14,11.3137085 14,8 C14,4.6862915 11.3137085,2 8,2 C4.6862915,2 2,4.6862915 2,8 C2,11.3137085 4.6862915,14 8,14 Z"/>
</svg>

<svg xmlns="http://www.w3.org/2000/svg" width="16" height="16" viewBox="0 0 16 16"><path fill="#758CA3" fill-rule="evenodd" d="M7 7V5c0-.5523.4477-1 1-1s1 .4477 1 1v2h2c.5523 0 1 .4477 1 1s-.4477 1-1 1H9v2c0 .5523-.4477 1-1 1s-1-.4477-1-1V9H5c-.5523 0-1-.4477-1-1s.4477-1 1-1h2zm1 9c-4.4183 0-8-3.5817-8-8s3.5817-8 8-8 8 3.5817 8 8-3.5817 8-8 8zm0-2c3.3137 0 6-2.6863 6-6s-2.6863-6-6-6-6 2.6863-6 6 2.6863 6 6 6z"/></svg>
